frontend/src/assets/images/Sos icon.svg

<svg width="40" height="40" viewBox="0 0 40 40" fill="none" xmlns="http://www.w3.org/2000/svg">
<rect width="40" height="40" rx="20" fill="#FFEAEC"/>
<path d="M23.0499 13C24.0267 13.1906 24.9243 13.6683 25.628 14.3719C26.3317 15.0756 26.8094 15.9733 26.9999 16.95M23.0499 9C25.0792 9.22544 26.9715 10.1342 28.4162 11.577C29.8608 13.0198 30.7719 14.911 30.9999 16.94M29.9999 24.92V27.92C30.0011 28.1985 29.944 28.4742 29.8324 28.7293C29.7209 28.9845 29.5572 29.2136 29.352 29.4019C29.1468 29.5901 28.9045 29.7335 28.6407 29.8227C28.3769 29.9119 28.0973 29.9451 27.8199 29.92C24.7428 29.5856 21.7869 28.5341 19.1899 26.85C16.7738 25.3147 14.7253 23.2662 13.1899 20.85C11.4999 18.2412 10.4482 15.271 10.1199 12.18C10.0949 11.9035 10.1278 11.6248 10.2164 11.3616C10.3051 11.0985 10.4475 10.8567 10.6347 10.6516C10.8219 10.4466 11.0497 10.2827 11.3037 10.1705C11.5577 10.0583 11.8323 10.0003 12.1099 10H15.1099C15.5952 9.99522 16.0657 10.1671 16.4337 10.4835C16.8017 10.8 17.042 11.2394 17.1099 11.72C17.2366 12.6801 17.4714 13.6227 17.8099 14.53C17.9445 14.8879 17.9736 15.2769 17.8938 15.6509C17.8141 16.0248 17.6288 16.3681 17.3599 16.64L16.0899 17.91C17.5135 20.4135 19.5864 22.4864 22.0899 23.91L23.3599 22.64C23.6318 22.3711 23.9751 22.1858 24.3491 22.1061C24.723 22.0263 25.112 22.0555 25.4699 22.19C26.3772 22.5286 27.3199 22.7634 28.2799 22.89C28.7657 22.9585 29.2093 23.2032 29.5265 23.5775C29.8436 23.9518 30.0121 24.4296 29.9999 24.92Z" stroke="#EB1B35" stroke-width="2" stroke-linecap="round" stroke-linejoin="round"/>
</svg>

<svg xmlns="http://www.w3.org/2000/svg" width="40" height="40" fill="none"><rect width="40" height="40" fill="#FFEAEC" rx="20"/><path stroke="#EB1B35" stroke-linecap="round" stroke-linejoin="round" stroke-width="2" d="M23.05 13A5 5 0 0 1 27 16.95M23.05 9A9 9 0 0 1 31 16.94m-1 7.98v3a2 2 0 0 1-2.18 2 19.8 19.8 0 0 1-8.63-3.07 19.5 19.5 0 0 1-6-6 19.8 19.8 0 0 1-3.07-8.67A2 2 0 0 1 12.11 10h3a2 2 0 0 1 2 1.72c.127.96.361 1.903.7 2.81a2 2 0 0 1-.45 2.11l-1.27 1.27a16 16 0 0 0 6 6l1.27-1.27a2 2 0 0 1 2.11-.45c.907.339 1.85.573 2.81.7A2 2 0 0 1 30 24.92"/></svg>
